icon-themes/sifr_svg/cmd/lc_basicshapes.round-rectangle.svg

<svg viewBox="0 0 24 24" xmlns="http://www.w3.org/2000/svg"><g fill="#555753"><path d="m5 4c-1.662 0-3 1.338-3 3v10c0 1.662 1.338 3 3 3h14c1.662 0 3-1.338 3-3v-10c0-1.662-1.338-3-3-3zm0 2h14c.554 0 1 .446 1 1v10c0 .554-.446 1-1 1h-14c-.554 0-1-.446-1-1v-10c0-.554.446-1 1-1z"/><path d="m5 6c-.554 0-1 .446-1 1v10c0 .554.446 1 1 1h14c.554 0 1-.446 1-1v-10c0-.554-.446-1-1-1z" opacity=".35"/></g></svg>

<svg xmlns="http://www.w3.org/2000/svg" viewBox="0 0 24 24">
  <path
     style="fill:#555753"
     d="M 5,4 C 3.338,4 2,5.338 2,7 v 10 c 0,1.662 1.338,3 3,3 h 14 c 1.662,0 3,-1.338 3,-3 V 7 C 22,5.338 20.662,4 19,4 Z m 0,2 h 14 c 0.554,0 1,0.446 1,1 v 10 c 0,0.554 -0.446,1 -1,1 H 5 C 4.446,18 4,17.554 4,17 V 7 C 4,6.446 4.446,6 5,6 Z"
     />
  <path
     style="opacity:0.35;fill:#555753"
     d="M 5,6 C 4.446,6 4,6.446 4,7 v 10 c 0,0.554 0.446,1 1,1 h 14 c 0.554,0 1,-0.446 1,-1 V 7 C 20,6.446 19.554,6 19,6 Z"
     />
</svg>
